X:185
T: Anascaul #2
S: B.Breathnach: "Ceol Rince na hEireann" II/129 (gan ainm)
Z: B.Black
L: 1/8
M: 2/4
R: polka
K: Edor
EF GA|Be ef|BB/A/ FA|EF D2|
EF GA|Be ef|Bd/B/ AF|E2 E2 :|
Be ef|af fd|Be ef|af e2|
Be ef|af fd|Bd/B/ AF|FE E2 :|
